X:596
T:Auld Graden Kirk, The
S:Lori Watson, Fiddle 2003
Z:Nigel Gatherer
L:1/8
M:3/4
K:D
fe dB AG | FA df ed | B2 d3  B | A6     |
f3   efg | a2 f2 d2 | Bc dB cd | e6     |
fe dB AG | FA df ed | B2 d3  B | A6     |
g3   fga | a2 f2 e2 | d6-      | d4 z2 :|
a3   faf | a2 e2 d2 | c2 B2 A2 | g6     |
g3   fgf | g2 f2 e2 | d2 c2 B2 | A6     |
a3   faf | a2 e2 d2 | c2 B2 A2 | g6     |
f2 e2 d2 | e2 B2 c2 | d6-      | d4 z2 :|]
<end>
<start>
